!!!COM: Corelli, Arcangelo
!!!OTL: Sonata da camera
!!!OPS: 4
!!!ONM: 6
!!!OMV: 5
!!!OMD: Adagio
**kern	**fb	**kern	**kern
*part3	*part3	*part2	*part1
*staff3	*	*staff2	*staff1
*I"Piano	*	*I"Violin	*I"Violin
*clefF4	*	*clefG2	*clefG2
*k[f#c#g#]	*	*k[f#c#g#]	*k[f#c#g#]
*M6/4	*	*M6/4	*M6/4
=1	=1	=1	=1
!	!	!	!LO:TX:a:t=Adagio
1B	n	1.r	2r
.	.	.	[1ff#
2A	6	.	.
=	=	=	=
1Gn	76	2r	2ff#]
.	.	[1b	2ee
2G	.	.	2ggn
=	=	=	=
1A	98 n	2b]	[1.ccn
.	.	2a	.
2A	.	2ccn	.
=	=	=	=
1B	n98 #4	2d#X	2cc]
.	.	2e	2b
2D#X	-r5	[2f#	2a
=	=	=	=
1E	98 -4	2f#]	2gn
.	.	2e	2a
2GG#Xi	-r5	2d	[2b
=	=	=	=
2AA	9 #	2c#	2b]
2BB	7 #	2d#X	2a
2Cn	5	[2e	(4gn
.	.	.	4f#)
=	=	=	=
2AA	7 5	2e]	2gni
1BB	5 #r4	2.e	1f#
.	.	4d#X	.
=	=	=	=
1E	-	1e	1e
[2D	6	[2f#	[2b
=	=	=	=
2D]	.	2f#]	2b]
1Cn	6	1e	1a
=	=	=	=
1.BB;	#	1.d#X;	1.b;
=||	=||	=||	=||
*-	*-	*-	*-
!!!system-decoration: [{s1,s2},s3,s4]
!!!YEM: CC BY-NC-SA 4.0; CCARH; DCML
!!!RDF**kern: i = editorial accidental